flaticon/arrows/multiply-8.svg

<svg xmlns="http://www.w3.org/2000/svg" width="32" height="32" viewBox="0 0 24 24">
    <path d="M23.96875 12.152344C24.011719 12.054688 24.011719 11.945312 23.96875 11.847656 23.949219 11.796875 23.921875 11.753906 23.882812 11.714844L20.28125 8.117188C20.125 7.960938 19.875 7.960938 19.71875 8.117188 19.5625 8.273438 19.5625 8.527344 19.71875 8.683594L22.636719 11.601562 12.800781 11.601562C12.578125 11.601562 12.398438 11.777344 12.398438 12 12.398438 12.027344 12.410156 12.050781 12.417969 12.078125 12.410156 12.105469 12.398438 12.128906 12.398438 12.160156 12.390625 12.410156 12.367188 12.660156 12.328125 12.902344 12.292969 13.121094 12.441406 13.328125 12.660156 13.363281 12.679688 13.367188 12.703125 13.367188 12.722656 13.367188 12.914062 13.367188 13.085938 13.226562 13.117188 13.03125 13.152344 12.824219 13.171875 12.613281 13.183594 12.398438L22.636719 12.398438 19.71875 15.316406C19.5625 15.472656 19.5625 15.726562 19.71875 15.882812 19.796875 15.960938 19.898438 16 20 16 20.101562 16 20.207031 15.960938 20.28125 15.882812L23.882812 12.28125C23.921875 12.246094 23.949219 12.203125 23.96875 12.152344zM3.484375 14.117188C3.328125 13.960938 3.074219 13.960938 2.917969 14.117188 2.761719 14.273438 2.761719 14.527344 2.917969 14.683594L5.835938 17.601562.398438 17.601562C.179688 17.601562 0 17.777344 0 18 0 18.222656.179688 18.398438.398438 18.398438L5.835938 18.398438 2.917969 21.316406C2.761719 21.472656 2.761719 21.726562 2.917969 21.882812 2.996094 21.960938 3.097656 22 3.199219 22 3.300781 22 3.40625 21.960938 3.484375 21.882812L7.082031 18.28125C7.238281 18.125 7.238281 17.875 7.082031 17.71875zM8.980469 6.839844C9.210938 6.9375 9.433594 7.050781 9.644531 7.175781 9.710938 7.214844 9.78125 7.234375 9.851562 7.234375 9.984375 7.234375 10.121094 7.164062 10.195312 7.035156 10.308594 6.847656 10.246094 6.601562 10.054688 6.488281 9.8125 6.34375 9.554688 6.214844 9.292969 6.105469 9.089844 6.019531 8.855469 6.113281 8.769531 6.316406 8.683594 6.519531 8.777344 6.753906 8.980469 6.839844zM11.300781 8.664062C11.378906 8.773438 11.5 8.828125 11.621094 8.828125 11.703125 8.828125 11.789062 8.800781 11.859375 8.75 12.035156 8.617188 12.074219 8.367188 11.941406 8.1875 11.773438 7.960938 11.589844 7.742188 11.390625 7.539062 11.238281 7.382812 10.984375 7.378906 10.824219 7.53125 10.667969 7.6875 10.664062 7.9375 10.816406 8.097656 10.988281 8.273438 11.152344 8.464844 11.300781 8.664062zM12.019531 9.96875C12.109375 10.199219 12.183594 10.4375 12.242188 10.679688 12.289062 10.863281 12.453125 10.984375 12.632812 10.984375 12.664062 10.984375 12.695312 10.980469 12.726562 10.972656 12.941406 10.921875 13.074219 10.707031 13.019531 10.492188 12.953125 10.214844 12.867188 9.941406 12.765625 9.679688 12.683594 9.472656 12.453125 9.371094 12.246094 9.449219 12.042969 9.53125 11.941406 9.761719 12.019531 9.96875zM8.683594 17.277344C8.449219 17.359375 8.207031 17.429688 7.964844 17.480469 7.75 17.523438 7.609375 17.738281 7.65625 17.953125 7.695312 18.140625 7.863281 18.269531 8.046875 18.269531 8.074219 18.269531 8.101562 18.269531 8.128906 18.261719 8.40625 18.203125 8.683594 18.125 8.953125 18.03125 9.160156 17.957031 9.269531 17.726562 9.195312 17.519531 9.117188 17.3125 8.890625 17.203125 8.683594 17.277344zM12.425781 14.128906C12.226562 14.039062 11.988281 14.128906 11.894531 14.328125 11.792969 14.550781 11.671875 14.773438 11.539062 14.984375 11.421875 15.171875 11.480469 15.417969 11.664062 15.535156 11.730469 15.578125 11.804688 15.597656 11.878906 15.597656 12.011719 15.597656 12.140625 15.53125 12.21875 15.410156 12.367188 15.167969 12.503906 14.917969 12.621094 14.660156 12.714844 14.460938 12.625 14.222656 12.425781 14.128906zM10.585938 16.128906C10.402344 16.292969 10.207031 16.453125 10.003906 16.59375 9.824219 16.71875 9.777344 16.96875 9.90625 17.152344 9.984375 17.261719 10.105469 17.324219 10.234375 17.324219 10.3125 17.324219 10.390625 17.296875 10.460938 17.25 10.695312 17.085938 10.917969 16.90625 11.125 16.714844 11.289062 16.566406 11.300781 16.3125 11.152344 16.152344 11 15.988281 10.75 15.976562 10.585938 16.128906zM4.398438 12C4.398438 13.984375 6.015625 15.601562 8 15.601562 9.984375 15.601562 11.601562 13.984375 11.601562 12 11.601562 10.015625 9.984375 8.398438 8 8.398438 6.015625 8.398438 4.398438 10.015625 4.398438 12zM8 9.199219C9.542969 9.199219 10.800781 10.457031 10.800781 12 10.800781 13.542969 9.542969 14.800781 8 14.800781 6.457031 14.800781 5.199219 13.542969 5.199219 12 5.199219 10.457031 6.457031 9.199219 8 9.199219zM.398438 6.398438L5.835938 6.398438 2.917969 9.316406C2.761719 9.472656 2.761719 9.726562 2.917969 9.882812 2.996094 9.960938 3.097656 10 3.199219 10 3.300781 10 3.40625 9.960938 3.484375 9.882812L6.960938 6.40625C7.15625 6.410156 7.351562 6.421875 7.546875 6.449219 7.5625 6.449219 7.582031 6.453125 7.597656 6.453125 7.796875 6.453125 7.96875 6.304688 7.992188 6.105469 8.023438 5.886719 7.867188 5.683594 7.648438 5.65625 7.425781 5.625 7.199219 5.613281 6.972656 5.605469L3.484375 2.117188C3.328125 1.960938 3.074219 1.960938 2.917969 2.117188 2.761719 2.273438 2.761719 2.527344 2.917969 2.683594L5.835938 5.601562.398438 5.601562C.179688 5.601562 0 5.777344 0 6 0 6.222656.179688 6.398438.398438 6.398438zM.398438 6.398438"/>
</svg>

<svg xmlns="http://www.w3.org/2000/svg" width="32" height="32" viewBox="0 0 24 24">
    <path d="M23.969 12.152a.376.376 0 0 0 0-.304.37.37 0 0 0-.086-.133L20.28 8.117a.396.396 0 0 0-.562 0 .4.4 0 0 0 0 .567l2.918 2.918H12.8a.398.398 0 0 0-.403.398c0 .027.012.05.02.078-.008.027-.02.05-.02.082-.007.25-.03.5-.07.742a.402.402 0 0 0 .395.465c.191 0 .363-.14.394-.336.035-.207.055-.418.067-.633h9.453l-2.918 2.918A.4.4 0 0 0 20 16a.39.39 0 0 0 .281-.117l3.602-3.602a.326.326 0 0 0 .086-.129zm0 0M3.484 14.117a.4.4 0 0 0-.566.567l2.918 2.918H.398a.398.398 0 1 0 0 .796h5.438l-2.918 2.918a.4.4 0 0 0 .566.567l3.598-3.602a.396.396 0 0 0 0-.562zm0 0M8.98 6.84c.23.098.454.21.665.336a.4.4 0 0 0 .55-.14.398.398 0 0 0-.14-.548 6.036 6.036 0 0 0-.762-.383.399.399 0 1 0-.313.735zm0 0M11.3 8.664c.079.11.2.164.321.164a.413.413 0 0 0 .238-.078.404.404 0 0 0 .082-.563 6.195 6.195 0 0 0-.55-.648.404.404 0 0 0-.567-.008.404.404 0 0 0-.008.567c.172.175.336.367.485.566zm0 0M12.02 9.969c.09.23.164.469.222.71a.404.404 0 0 0 .485.294.394.394 0 0 0 .293-.48 6.327 6.327 0 0 0-.254-.813.404.404 0 0 0-.52-.23.406.406 0 0 0-.226.519zm0 0M8.684 17.277a5.782 5.782 0 0 1-.72.203.398.398 0 0 0 .083.79c.027 0 .055 0 .082-.008.277-.059.555-.137.824-.23a.402.402 0 0 0 .242-.512.403.403 0 0 0-.511-.243zm0 0M12.426 14.129c-.2-.09-.438 0-.531.2a5.622 5.622 0 0 1-.356.655.402.402 0 0 0 .34.614.404.404 0 0 0 .34-.188 6.92 6.92 0 0 0 .402-.75.401.401 0 0 0-.195-.531zm0 0M10.586 16.129a6.07 6.07 0 0 1-.582.465.402.402 0 1 0 .23.73.412.412 0 0 0 .227-.074c.234-.164.457-.344.664-.535a.398.398 0 1 0-.54-.586zm0 0M4.398 12A3.608 3.608 0 0 0 8 15.602 3.608 3.608 0 0 0 11.602 12 3.608 3.608 0 0 0 8 8.398 3.608 3.608 0 0 0 4.398 12zM8 9.2c1.543 0 2.8 1.257 2.8 2.8S9.544 14.8 8 14.8A2.806 2.806 0 0 1 5.2 12c0-1.543 1.257-2.8 2.8-2.8zm0 0M.398 6.398h5.438L2.918 9.316a.4.4 0 0 0 .566.567l3.477-3.477c.195.004.39.016.586.043.016 0 .035.004.05.004.2 0 .372-.148.395-.348a.398.398 0 0 0-.344-.449 6.473 6.473 0 0 0-.675-.05L3.484 2.116a.4.4 0 0 0-.566.567l2.918 2.918H.398a.398.398 0 1 0 0 .796zm0 0"/>
</svg>
